_inc/images/systems/logos/atari7800.svg

<svg version="1.0" viewBox="0 0 264 57" xmlns="http://www.w3.org/2000/svg">
    <path d="M96.385 2.489c2.177-2.792 6.772-3.339 9.433-.911 1.088.911 1.874 2.246 2.297 3.582 4.959 17.239 10.038 34.54 14.996 51.779h-8.828c-1.391-4.795-2.721-9.53-4.172-14.326H92.999c-1.391 4.796-2.782 9.531-4.173 14.326h-8.828c4.777-16.45 9.493-32.901 14.27-49.351.666-1.761.907-3.703 2.117-5.099m5.2 10.562c-2.116 7.163-4.172 14.326-6.228 21.489h12.456c-2.116-7.163-4.172-14.326-6.228-21.489Zm56.9-10.198c1.511-2.246 4.535-3.339 7.135-2.61 2.358.546 4.232 2.61 4.837 4.977 4.958 17.24 10.038 34.54 14.996 51.78h-8.828c-1.331-4.796-2.721-9.531-4.112-14.326h-17.112A640.409 640.409 0 0 1 151.228 57H142.4c4.777-16.572 9.554-33.083 14.331-49.655.605-1.518.786-3.217 1.754-4.492m-.666 31.687h12.396c-2.056-7.163-4.172-14.326-6.167-21.489-2.177 7.163-4.173 14.326-6.229 21.489ZM116.46.182h31.987v8.681h-11.791V57h-8.405V8.863H116.46V.182Zm78.426.304c.786-.304 1.693-.365 2.539-.365h10.098c5.684.122 11.066 3.643 13.485 8.742 1.693 3.338 1.874 7.223 1.451 10.865-.303 3.825-1.935 7.649-4.777 10.138-1.512 1.396-3.447 2.185-5.14 3.46-.907.728-.907 2.064-.484 2.974 4.475 6.92 9.131 13.719 13.666 20.578h-10.037c-4.354-6.616-8.647-13.172-13.061-19.789-1.27-1.881-1.633-4.37-.847-6.495.605-1.639 2.056-2.853 3.628-3.46 3.023-1.153 6.047-2.974 7.74-5.888 1.33-2.125 1.209-4.796.665-7.224-.726-3.096-3.688-5.463-6.772-5.402h-6.531c-.967 0-1.935.85-1.935 1.821v46.316h-8.526V6.859c0-2.731 2.056-5.463 4.838-6.373Zm35.313-.304h8.949V57h-8.949V.182ZM25.215 0h4.293v10.137c0 2.793-.06 5.646-.181 8.438-.182 4.067-.484 8.134-1.089 12.201-.484 2.732-1.391 5.463-2.6 8.013-1.935 4.128-4.958 7.588-8.405 10.502-3.084 2.731-6.712 4.674-10.521 6.009-2.177.729-4.414 1.336-6.712 1.639v-8.498c2.721-.425 5.382-1.396 7.8-2.671 2.903-1.518 5.503-3.582 7.74-6.07a30.232 30.232 0 0 0 5.442-8.56c1.633-3.581 2.479-7.405 3.084-11.29.726-4.917 1.028-9.895 1.149-14.812V0Zm5.986 0h7.921v56.878h-7.921c-.06-6.009 0-12.14 0-18.15V0Zm9.675 0h4.293c-.06 5.827.121 11.594.847 17.361.544 4.431 1.33 8.984 3.144 13.112 1.693 4.006 4.112 7.77 7.256 10.805a27.304 27.304 0 0 0 10.642 6.374c1.089.364 2.237.667 3.386.789v8.498c-2.297-.303-4.474-.91-6.591-1.639-2.539-.91-5.018-2.064-7.316-3.581-1.693-1.093-3.144-2.368-4.656-3.703-2.358-2.185-4.535-4.735-6.168-7.649-1.27-2.246-2.177-4.613-2.902-7.041-.665-2.489-.907-4.978-1.21-7.527-.483-5.464-.725-10.988-.665-16.451-.06-3.096-.06-6.191-.06-9.348Z" style="fill:#fff"/>
    <path d="M25.215 0v5.038c-.121 4.978-.423 9.895-1.149 14.812-.605 3.824-1.451 7.709-3.084 11.29-1.391 3.096-3.144 6.01-5.442 8.56-2.177 2.428-4.777 4.552-7.74 6.07-2.479 1.335-5.079 2.246-7.8 2.671v8.498c2.298-.303 4.535-.91 6.712-1.639 3.809-1.335 7.498-3.339 10.521-6.009 3.386-2.914 6.47-6.374 8.405-10.502 1.149-2.55 2.116-5.22 2.6-8.013.665-4.006.907-8.073 1.089-12.14.121-2.793.181-5.646.181-8.438V.061C28.057 0 26.606 0 25.215 0m5.986 0v56.939c2.661-.061 5.261 0 7.921 0V.061C36.462 0 33.862 0 31.201 0m9.675 0v9.288c-.061 5.523.121 10.987.665 16.45.302 2.549.544 5.099 1.209 7.527.726 2.428 1.633 4.856 2.903 7.042 1.632 2.853 3.749 5.402 6.167 7.648 1.452 1.336 2.963 2.61 4.656 3.703 2.298 1.518 4.777 2.671 7.317 3.581 2.116.729 4.354 1.336 6.591 1.639V48.38c-1.149-.182-2.298-.486-3.386-.789-3.931-1.275-7.619-3.521-10.643-6.374-3.144-2.974-5.563-6.738-7.256-10.805-1.753-4.188-2.539-8.68-3.144-13.112-.665-5.645-.846-11.473-.786-17.239C43.718 0 42.267 0 40.876 0" style="fill:#fff"/>
    <path d="M256.187 33.038c-.677-1.05-1.722-1.791-2.891-1.791-2.83 0-4.122 2.965-4.122 5.743 0 2.779 1.292 5.744 4.122 5.744 1.231 0 2.276-.679 2.891-1.791.677 1.544 1.907 2.408 3.445 2.408 2.83 0 4.306-3.21 4.306-6.422 0-3.15-1.476-6.423-4.306-6.423-1.476.185-2.707 1.049-3.445 2.532Zm-1.784 4.076c0 .68-.492 1.297-1.045 1.297-.554 0-1.046-.555-1.046-1.297 0-.679.492-1.297 1.046-1.297.615-.061 1.045.556 1.045 1.297Zm3.63 0c0-.803.492-1.421 1.169-1.421.615 0 1.107.68 1.107 1.421 0 .803-.492 1.42-1.107 1.42-.677-.061-1.169-.678-1.169-1.42Zm-6.46-19.947c-1.599 1.173-2.399 2.964-2.399 5.063 0 2.1.862 3.83 2.399 5.065 1.293.988 3.138 1.544 5.045 1.544 3.691 0 7.382-2.038 7.382-6.609 0-4.57-3.753-6.607-7.382-6.607-1.907 0-3.691.556-5.045 1.544Zm8.059 5.002c0 1.606-2.03 1.791-3.014 1.791s-3.014-.185-3.014-1.791c0-1.606 2.03-1.791 3.014-1.791.984.062 3.014.247 3.014 1.791Zm-8.059-20.565c-1.599 1.173-2.399 2.965-2.399 5.064 0 2.1.862 3.829 2.399 5.064 1.293.988 3.138 1.543 5.045 1.543 3.691 0 7.382-2.037 7.382-6.607 0-4.509-3.753-6.608-7.382-6.608-1.907.062-3.691.618-5.045 1.544Zm8.059 5.064c0 1.606-2.03 1.791-3.014 1.791s-3.014-.185-3.014-1.791c0-1.606 2.03-1.791 3.014-1.791s3.014.185 3.014 1.791Z" style="fill:#fff;stroke-width:1.01737"/>
    <path style="fill:#fff" d="M263.938 55.456v-5.249l-14.579-6.238V57h4.552v-6.176z"/>
</svg>

<?xml version="1.0" encoding="utf-8"?>
<svg version="1.0" id="Ebene_1" x="0px" y="0px" enable-background="new 0 0 466.5 167.3" viewBox="0 0 264 57" xmlns="http://www.w3.org/2000/svg">
  <path d="M 96.385 2.489 C 98.562 -0.303 103.157 -0.85 105.818 1.578 C 106.906 2.489 107.692 3.824 108.115 5.16 C 113.074 22.399 118.153 39.7 123.111 56.939 C 120.148 56.939 117.185 56.939 114.283 56.939 C 112.892 52.144 111.562 47.409 110.111 42.613 C 104.427 42.613 98.682 42.613 92.999 42.613 C 91.608 47.409 90.217 52.144 88.826 56.939 C 85.863 56.939 82.961 56.939 79.998 56.939 C 84.775 40.489 89.491 24.038 94.268 7.588 C 94.934 5.827 95.175 3.885 96.385 2.489 M 101.585 13.051 C 99.469 20.214 97.413 27.377 95.357 34.54 C 99.529 34.54 103.641 34.54 107.813 34.54 C 105.697 27.377 103.641 20.214 101.585 13.051 Z" id="path2" style="fill:#ffffff"/>
  <path d="M 158.485 2.853 C 159.996 0.607 163.02 -0.486 165.62 0.243 C 167.978 0.789 169.852 2.853 170.457 5.22 C 175.415 22.46 180.495 39.76 185.453 57 C 182.49 57 179.527 57 176.625 57 C 175.294 52.204 173.904 47.469 172.513 42.674 C 166.829 42.674 161.145 42.674 155.401 42.674 C 154.07 47.469 152.68 52.204 151.228 57 C 148.266 57 145.363 57 142.4 57 C 147.177 40.428 151.954 23.917 156.731 7.345 C 157.336 5.827 157.517 4.128 158.485 2.853 M 157.819 34.54 C 161.992 34.54 166.043 34.54 170.215 34.54 C 168.159 27.377 166.043 20.214 164.048 13.051 C 161.871 20.214 159.875 27.377 157.819 34.54 Z" id="path4" style="fill:#ffffff"/>
  <path d="M 116.46 0.182 C 127.102 0.182 137.805 0.182 148.447 0.182 C 148.447 3.096 148.447 6.01 148.447 8.863 C 144.517 8.863 140.586 8.863 136.656 8.863 C 136.656 24.888 136.656 40.914 136.656 57 C 133.874 57 131.032 57 128.251 57 C 128.251 40.974 128.251 24.949 128.251 8.863 C 124.321 8.863 120.39 8.863 116.46 8.863 C 116.46 5.888 116.46 3.035 116.46 0.182 Z" id="path6" style="fill:#ffffff"/>
  <path d="M 194.886 0.486 C 195.672 0.182 196.579 0.121 197.425 0.121 C 200.751 0.121 204.137 0.121 207.523 0.121 C 213.207 0.243 218.589 3.764 221.008 8.863 C 222.701 12.201 222.882 16.086 222.459 19.728 C 222.156 23.553 220.524 27.377 217.682 29.866 C 216.17 31.262 214.235 32.051 212.542 33.326 C 211.635 34.054 211.635 35.39 212.058 36.3 C 216.533 43.22 221.189 50.019 225.724 56.878 C 222.398 56.878 219.073 56.878 215.687 56.878 C 211.333 50.262 207.04 43.706 202.626 37.089 C 201.356 35.208 200.993 32.719 201.779 30.594 C 202.384 28.955 203.835 27.741 205.407 27.134 C 208.43 25.981 211.454 24.16 213.147 21.246 C 214.477 19.121 214.356 16.45 213.812 14.022 C 213.086 10.926 210.124 8.559 207.04 8.62 C 204.863 8.62 202.686 8.62 200.509 8.62 C 199.542 8.62 198.574 9.47 198.574 10.441 C 198.574 25.859 198.574 41.339 198.574 56.757 C 195.732 56.757 192.89 56.757 190.048 56.757 C 190.048 40.124 190.048 23.492 190.048 6.859 C 190.048 4.128 192.104 1.396 194.886 0.486 Z" id="path8" style="fill:#ffffff"/>
  <path d="M 230.199 0.182 C 233.162 0.182 236.185 0.182 239.148 0.182 C 239.148 19.121 239.148 38.061 239.148 57 C 236.185 57 233.162 57 230.199 57 C 230.199 38 230.199 19.061 230.199 0.182 Z" id="path10" style="fill:#ffffff"/>
  <path d="M 25.215 0 C 26.666 0 28.117 0 29.508 0 C 29.508 3.339 29.508 6.799 29.508 10.137 C 29.508 12.93 29.448 15.783 29.327 18.575 C 29.145 22.642 28.843 26.709 28.238 30.776 C 27.754 33.508 26.847 36.239 25.638 38.789 C 23.703 42.917 20.68 46.377 17.233 49.291 C 14.149 52.022 10.521 53.965 6.712 55.3 C 4.535 56.029 2.298 56.636 0 56.939 C 0 54.086 0 51.294 0 48.441 C 2.721 48.016 5.382 47.045 7.8 45.77 C 10.703 44.252 13.303 42.188 15.54 39.7 C 17.838 37.15 19.652 34.297 20.982 31.14 C 22.615 27.559 23.461 23.735 24.066 19.85 C 24.792 14.933 25.094 9.955 25.215 5.038 C 25.215 3.399 25.215 1.7 25.215 0 Z" id="path12" style="fill:#ffffff"/>
  <path d="M 31.201 0 C 33.862 0 36.462 0 39.122 0 C 39.122 19 39.122 37.939 39.122 56.878 C 36.462 56.878 33.862 56.878 31.201 56.878 C 31.141 50.869 31.201 44.738 31.201 38.728 C 31.201 25.859 31.201 12.99 31.201 0 Z" id="path14" style="fill:#ffffff"/>
  <path d="M 40.876 0 C 42.327 0 43.718 0 45.169 0 C 45.109 5.827 45.29 11.594 46.016 17.361 C 46.56 21.792 47.346 26.345 49.16 30.473 C 50.853 34.479 53.272 38.243 56.416 41.278 C 59.439 44.192 63.067 46.377 67.058 47.652 C 68.147 48.016 69.295 48.319 70.444 48.441 C 70.444 51.294 70.444 54.086 70.444 56.939 C 68.147 56.636 65.97 56.029 63.853 55.3 C 61.314 54.39 58.835 53.236 56.537 51.719 C 54.844 50.626 53.393 49.351 51.881 48.016 C 49.523 45.831 47.346 43.281 45.713 40.367 C 44.443 38.121 43.536 35.754 42.811 33.326 C 42.146 30.837 41.904 28.348 41.601 25.799 C 41.118 20.335 40.876 14.811 40.936 9.348 C 40.876 6.252 40.876 3.157 40.876 0 Z" id="path16" style="fill:#ffffff"/>
  <path d="M 25.215 0 C 25.215 1.7 25.215 3.339 25.215 5.038 C 25.094 10.016 24.792 14.933 24.066 19.85 C 23.461 23.674 22.615 27.559 20.982 31.14 C 19.591 34.236 17.838 37.15 15.54 39.7 C 13.363 42.128 10.763 44.252 7.8 45.77 C 5.321 47.105 2.721 48.016 0 48.441 C 0 51.294 0 54.086 0 56.939 C 2.298 56.636 4.535 56.029 6.712 55.3 C 10.521 53.965 14.21 51.961 17.233 49.291 C 20.619 46.377 23.703 42.917 25.638 38.789 C 26.787 36.239 27.754 33.569 28.238 30.776 C 28.903 26.77 29.145 22.703 29.327 18.636 C 29.448 15.843 29.508 12.99 29.508 10.198 C 29.508 6.859 29.508 3.399 29.508 0.061 C 28.057 0 26.606 0 25.215 0" id="path18" style="fill:#ffffff"/>
  <path d="M 31.201 0 C 31.201 12.93 31.201 25.859 31.201 38.789 C 31.201 44.799 31.201 50.93 31.201 56.939 C 33.862 56.878 36.462 56.939 39.122 56.939 C 39.122 37.939 39.122 18.939 39.122 0.061 C 36.462 0 33.862 0 31.201 0" id="path20" style="fill:#ffffff"/>
  <path d="M 40.876 0 C 40.876 3.096 40.876 6.192 40.876 9.288 C 40.815 14.811 40.997 20.275 41.541 25.738 C 41.843 28.287 42.085 30.837 42.75 33.265 C 43.476 35.693 44.383 38.121 45.653 40.307 C 47.285 43.16 49.402 45.709 51.82 47.955 C 53.272 49.291 54.783 50.565 56.476 51.658 C 58.774 53.176 61.253 54.329 63.793 55.239 C 65.909 55.968 68.147 56.575 70.384 56.878 C 70.384 54.025 70.384 51.233 70.384 48.38 C 69.235 48.198 68.086 47.894 66.998 47.591 C 63.067 46.316 59.379 44.07 56.355 41.217 C 53.211 38.243 50.792 34.479 49.099 30.412 C 47.346 26.224 46.56 21.732 45.955 17.3 C 45.29 11.655 45.109 5.827 45.169 0.061 C 43.718 0 42.267 0 40.876 0" id="path22" style="fill:#ffffff"/>
  <path d="M 256.187 33.038 C 255.51 31.988 254.465 31.247 253.296 31.247 C 250.466 31.247 249.174 34.212 249.174 36.99 C 249.174 39.769 250.466 42.734 253.296 42.734 C 254.527 42.734 255.572 42.055 256.187 40.943 C 256.864 42.487 258.094 43.351 259.632 43.351 C 262.462 43.351 263.938 40.141 263.938 36.929 C 263.938 33.779 262.462 30.506 259.632 30.506 C 258.156 30.691 256.925 31.555 256.187 33.038 Z M 254.403 37.114 C 254.403 37.794 253.911 38.411 253.358 38.411 C 252.804 38.411 252.312 37.856 252.312 37.114 C 252.312 36.435 252.804 35.817 253.358 35.817 C 253.973 35.756 254.403 36.373 254.403 37.114 Z M 258.033 37.114 C 258.033 36.311 258.525 35.693 259.202 35.693 C 259.817 35.693 260.309 36.373 260.309 37.114 C 260.309 37.917 259.817 38.534 259.202 38.534 C 258.525 38.473 258.033 37.856 258.033 37.114 Z" id="path41" style="fill:#ffffff;stroke-width:1.01737"/>
  <path d="M 251.573 17.167 C 249.974 18.34 249.174 20.131 249.174 22.23 C 249.174 24.33 250.036 26.06 251.573 27.295 C 252.866 28.283 254.711 28.839 256.618 28.839 C 260.309 28.839 264 26.801 264 22.23 C 264 17.66 260.247 15.623 256.618 15.623 C 254.711 15.623 252.927 16.179 251.573 17.167 Z M 259.632 22.169 C 259.632 23.775 257.602 23.96 256.618 23.96 C 255.634 23.96 253.604 23.775 253.604 22.169 C 253.604 20.563 255.634 20.378 256.618 20.378 C 257.602 20.44 259.632 20.625 259.632 22.169 Z" id="path43" style="fill:#ffffff;stroke-width:1.01737"/>
  <path d="M 251.573 1.604 C 249.974 2.777 249.174 4.569 249.174 6.668 C 249.174 8.768 250.036 10.497 251.573 11.732 C 252.866 12.72 254.711 13.275 256.618 13.275 C 260.309 13.275 264 11.238 264 6.668 C 264 2.159 260.247 0.06 256.618 0.06 C 254.711 0.122 252.927 0.678 251.573 1.604 Z M 259.632 6.668 C 259.632 8.274 257.602 8.459 256.618 8.459 C 255.634 8.459 253.604 8.274 253.604 6.668 C 253.604 5.062 255.634 4.877 256.618 4.877 C 257.602 4.877 259.632 5.062 259.632 6.668 Z" id="path45" style="fill:#ffffff;stroke-width:1.01737"/>
  <polygon points="263.938 55.456 263.938 50.207 249.359 43.969 249.359 57 253.911 57 253.911 50.824" id="polygon47" style="fill:#ffffff"/>
</svg>
